X: 100448
T: PRIDE OF THE NORTH QUADRILLE Part 2
C: By W.C. Paton
R: march, polka
B: K\"ohler's Violin Repository, v.3, 1885 p.282 #2
F: http://www.archive.org/details/klersviolinrepos03rugg
U: P=!crescendo(!
U: p=!crescendo)!
U: Q=!diminuendo(!
U: q=!diminuendo)!
Z: 2012 John Chambers <jc:trillian.mit.edu>
N: Added triplet markings in next-to-last bar.
M: 2/4
L: 1/16
K: D
[|\
vD2DD D2DD | DA,DF DA,DF | F2FF F2FF | FDFA FDFA | A2AA A2AA |\
AFAd AFAd | A_B=Bc ^cdef | d2 v[d'4d4] "_Fine."H|]
uA2 |\
A2d2c2d2 | e2f2c4 | Pd4(.e3.g) | f2pd2d4 |\
A2d2c2d2 | e2f2c4 | Pd4 (.e3.g) | f2d2 pd2 |
f2a2 a2gf | g2g2 "_Divisi"g4 | ([g2G2]Q[f2F2])[e2E2][d2D2] | [c2C2][B2B,2] [A4A,4]q |\
a2ba g2ag | f2gf e4 | (dc)BA B2c2 | d2z2 [d'4d4] |]
D2DD D2DD | DA,DF DA,DF | F2FF F2FF | FDFA FDFA |\
A2AA A2AA | AFAd AFAd | A_B=Bc ^cdef | d2 v[d'4d4] |]
(de) |\
(.f2z.f) (.f2z.d) | (.g2z.g) (.g2z.e) | (.f2z.f) (.f2z.d) | e6 (de) |\
(.f2z.f) (.f2z.d) | (.g2z.a) (.b2z.d') | {b}(.a2z.g) {g}(.f2z.e) | d6 c'2 |
(.d'2z.b) (.a2z.f) | (.g2z.a) (.b2z.c') | (d'b2)z (af2)z | e6 zuc' |\
(.d'2z.b) (.a2z.f) | (.g2z.a) (.b2z.d') | (3a2b2g2 (3f2g2e2 | vd2z2 v[d'4d4] "^D.C."|]

%%sep 2 1 500

